icons/design.svg

<?xml version="1.0" encoding="utf-8"?>
<svg xmlns="http://www.w3.org/2000/svg" viewBox="0 0 16 16" fill="#ffffff"><path d="M 4.492188 2 C 4.363281 2.003906 4.238281 2.054688 4.148438 2.148438 L 2.148438 4.148438 C 1.953125 4.339844 1.953125 4.660156 2.148438 4.851563 L 5.277344 7.984375 L 3.4375 9.859375 L 2.085938 13.917969 L 6.140625 12.5625 L 6.226563 12.484375 L 8.015625 10.722656 L 11.144531 13.855469 C 11.339844 14.046875 11.660156 14.046875 11.855469 13.855469 L 13.855469 11.855469 C 14.046875 11.660156 14.046875 11.339844 13.855469 11.144531 L 10.746094 8.039063 L 13.410156 5.414063 L 13.414063 5.414063 C 14.191406 4.636719 14.191406 3.363281 13.414063 2.585938 C 13.027344 2.199219 12.511719 2.003906 12 2.003906 C 11.488281 2.003906 10.972656 2.195313 10.585938 2.585938 L 10.582031 2.585938 L 7.960938 5.253906 L 4.851563 2.148438 C 4.757813 2.050781 4.628906 1.996094 4.492188 2 Z M 4.5 3.207031 L 5.292969 4 L 4.648438 4.648438 L 5.351563 5.351563 L 6 4.707031 L 7.257813 5.96875 L 5.980469 7.273438 L 3.207031 4.5 Z M 10.449219 4.15625 L 11.84375 5.554688 L 5.609375 11.6875 L 3.664063 12.335938 L 4.3125 10.394531 Z M 10.03125 8.742188 L 11.292969 10 L 10.644531 10.644531 L 11.355469 11.355469 L 12 10.707031 L 12.792969 11.5 L 11.5 12.792969 L 8.726563 10.019531 Z" fill="#ffffff"/></svg>

<?xml version="1.0" encoding="utf-8"?>
<!-- Generator: Adobe Illustrator 25.2.3, SVG Export Plug-In . SVG Version: 6.00 Build 0)  -->
<svg version="1.1" id="Layer_1" xmlns="http://www.w3.org/2000/svg" xmlns:xlink="http://www.w3.org/1999/xlink" x="0px" y="0px"
	 viewBox="0 0 16 16" style="enable-background:new 0 0 16 16;" xml:space="preserve">
<style type="text/css">
	.st0{fill:#111111;}
</style>
<path class="st0" d="M4.5,2C4.4,2,4.2,2.1,4.1,2.1l-2,2C2,4.3,2,4.7,2.1,4.9L5.3,8L3.4,9.9l-1.4,4.1l4.1-1.4l0.1-0.1L8,10.7l3.1,3.1
	c0.2,0.2,0.5,0.2,0.7,0l2-2c0.2-0.2,0.2-0.5,0-0.7L10.7,8l2.7-2.6h0c0.8-0.8,0.8-2.1,0-2.8C13,2.2,12.5,2,12,2s-1,0.2-1.4,0.6h0
	L8,5.3L4.9,2.1C4.8,2.1,4.6,2,4.5,2z M4.5,3.2L5.3,4L4.6,4.6l0.7,0.7L6,4.7L7.3,6L6,7.3L3.2,4.5L4.5,3.2z M10.4,4.2l1.4,1.4
	l-6.2,6.1l-1.9,0.6l0.6-1.9L10.4,4.2z M10,8.7l1.3,1.3l-0.6,0.6l0.7,0.7l0.6-0.6l0.8,0.8l-1.3,1.3L8.7,10L10,8.7z"/>
</svg>
